X: 2
T:Off to California
M:4/4
L:1/8
R:Hornpipe
K:G
(3DEF[|:GFGB AGED|GBdg e2 (3def|gfgd edBG|ABAG E2 (3DEF|!
GFGB AGED|GBdg e2 (3def|gfgd edBG|1AGGF G2 (3DEF:|2AGGF G2 (3def|!
|:gfeg fedf|edef edBd|gfgd edBG|ABAG E2 (3DEF|!
GFGB AGED|GBdg e2 (3def|gfgd edBG|1AGGF G2 (3def:|2AGGF G2 (3DEF|]!
